X:1
T:Title
%%score ( 1 2 ) ( 3 4 )
L:1/8
M:3/4
K:G
V:1 treble nm="Choir Aahs, Staff"
V:2 treble 
V:3 bass nm="Choir Aahs, Staff-1"
V:4 bass 
V:1
 z2 G2 z2 | [DA]2 B>_B =B2 | [Dc]2 c2 B2 | [Bd][Ac] [GB]2 [FA]2 | [EG]2 [EA]2 [DG]2 | [DF]2 [DG]4 | %6
 D2 G>F G2 | [DA]2 B>_B =B2 | [Dc]2 c2 B2 | [Bd][Ac] [GB]2 [FA]2 | [EG]2 [EA]2 [DG]2 | %11
 [DF]2 [DG]4 | [DG]2 [DB]>[DA] [DG]2 | [DB]2 [DA]>[DF] D2 | z2 z2 .E2 | %15
 [DG][CE] [B,D]>[B,D] [B,D]2 | [DB]2 c>B c2 | [DA]2 B>A B2 | [DG]2 [EA]2 [DG]2 | [DF]2 [DG]4 | %20
 [DG]2 [DB]>[DA] [DG]2 | [DB]2 [DA]>[DF] D2 | z2 z2 .E2 | [DG][CE] [B,D]>[B,D] [B,D]2 | %24
 [DB]2 c>B c2 | [DA]2 B>A B2 | [DG]2 [EA]2 [DG]2 | [DF]2 [DG]4 |] %28
V:2
 D2 D->[D-F] [DG]2 | z2 D4 | z2 D4 | x6 | x6 | x6 | z2 D4 | z2 D4 | z2 D4 | x6 | x6 | x6 | x6 | %13
 x6 | [DG]2 [CE]>[CE] C-[CF] | x6 | z2 E4 | z2 D4 | x6 | x6 | x6 | x6 | [DG]2 [CE]>[CE] C-[CF] | %23
 x6 | z2 E4 | z2 D4 | x6 | x6 |] %28
V:3
 D,2 [B,,G,]>[A,,A,] [G,,B,]2 | [D,F,]2 G,>[D,F,] [B,,G,]2 | [A,,F,]2 [A,,F,]2 [G,,G,]2 | %3
 D2 D2 z2 | [E,B,]2 [C,C]2 [D,B,]2 | [D,A,]2 [G,B,]4 | D,2 [B,,G,]>[A,,A,] [G,,B,]2 | %7
 [D,F,]2 G,>[D,F,] [B,,G,]2 | [A,,F,]2 [A,,F,]2 [G,,G,]2 | D2 D2 z2 | [E,B,]2 [C,C]2 [D,B,]2 | %11
 [D,A,]2 [G,B,]4 | [G,,B,]2 G,>[D,F,] [B,,G,]2 | z2 z2 F,2 | [B,,G,]2 [C,G,]>[C,G,] [C,G,]2 | %15
 [B,,D,][C,G,] [D,G,]>[B,,G,] [G,,G,]2 | z2 G,4 | [F,A,]2 G,>[F,A,] G,2 | [B,,D]2 [C,C]2 [D,B,]2 | %19
 [D,A,]2 [G,,B,]4 | [G,,B,]2 G,>[D,F,] [B,,G,]2 | z2 z2 F,2 | [B,,G,]2 [C,G,]>[C,G,] [C,G,]2 | %23
 [B,,D,][C,G,] [D,G,]>[B,,G,] [G,,G,]2 | z2 G,4 | [F,A,]2 G,>[F,A,] G,2 | [B,,D]2 [C,C]2 [D,B,]2 | %27
 [D,A,]2 [G,,B,]4 |] %28
V:4
 x6 | x6 | x6 | B,,C, D,2- [D,C]2 | x6 | x6 | x6 | x6 | x6 | B,,C, D,2- [D,C]2 | x6 | x6 | x6 | %13
 [G,,G,]2 [D,F,]>[D,A,] D,C, | x6 | x6 | G,2 C,>D, E,2 | x6 | x6 | x6 | x6 | %21
 [G,,G,]2 [D,F,]>[D,A,] D,C, | x6 | x6 | G,2 C,>D, E,2 | x6 | x6 | x6 |] %28

